client/resources/iconsets/breeze/src/svg/16x16/icon_task_declined.svg

<svg xmlns="http://www.w3.org/2000/svg" width="16" height="16" viewBox="0 0 16 16">
 <path style="fill:#6d6d70"
       d="m 8,0.003906 c -1.1046,0 -2,0.89543 -2,2 l -4,0 c -1,0 -1,1 -1,1 l 0,11 c 0,1 1,1 1,1 l 12,0 c 0,0 1,0 1,-1 l 0,-11 C 15,2.0039059 14,2.0039059 14,2.0039059 l -4,0 C 10,1.8658361 9.99495,1.727856 9.96875,1.597656 9.78226,0.686286 8.9666,0.003906 8,0.003906 Z m 0,1 c 0.41421,0 0.75444,0.26608 0.90625,0.625 C 8.95685,1.7485459 9,1.8658361 9,2.0039059 9,2.556186 8.55229,3.003906 8,3.003906 7.44771,3.003906 7,2.556186 7,2.0039059 7,1.4516259 7.44771,1.003906 8,1.003906 Z m -5,3 2,0 0,1 6,0 0,-1 2,0 0,9 -10,0 z"
       />
 <path style="fill:#f03d21"
       d="M 5.1718748,4.515624 3.7578123,5.9296865 6.5859373,8.7578115 3.7578123,11.585937 5.1718748,13 7.9999998,10.171874 10.828125,13 12.242188,11.585937 9.4140623,8.7578115 12.242188,5.9296865 10.828125,4.515624 7.9999998,7.343749 5.1718748,4.515624 Z"
       />
</svg>

<svg xmlns="http://www.w3.org/2000/svg" width="16" height="16"><path d="M8 .004a2 2 0 0 0-2 2H2c-1 0-1 1-1 1v11c0 1 1 1 1 1h12s1 0 1-1v-11c0-1-1-1-1-1h-4c0-.138-.005-.276-.031-.406A2.01 2.01 0 0 0 8 .004zm0 1c.414 0 .754.266.906.625A.94.94 0 0 1 9 2.004a1 1 0 1 1-2 0 1 1 0 0 1 1-1zm-5 3h2v1h6v-1h2v9H3z" fill="#6d6d70"/><path d="M5.172 4.516L3.758 5.93l2.828 2.828-2.828 2.828L5.172 13 8 10.172 10.828 13l1.414-1.414-2.828-2.828 2.828-2.828-1.414-1.414L8 7.344 5.172 4.516z" fill="#f03d21"/></svg>
